X: 3006
T: The Bawk
P: The Squirrel
C:Jas. Fraser. Lowe's Coll.
R:Jig (8x32)
B:RSCDS 30-4
Z:Anselm Lingnau <anselm@strathspey.org>
M:6/8
L:1/8
K:A
|:g|"A"a3 A2B|ced cBA|"F#m"a2 "A"A2B|"Bm"FBA "E"GFE|\
    "A"a3 A2B|ced "A7"cBA|
                         "Bm"FGA "E7"Bcd|"A"cAA A2:|\
e|"A"cAc ece|"D"fga "A"ecA|cAc ecA|"E"GAB Bcd|
  "A"cAc "A7"ece|"D"fga "A"ecA|"Bm"FGA "E7"Bcd|"A"cAA A2 e|\
  "A"cAc ece|"D"fga "A"ecA|
                           cAc ecA|"E"GAB Bcd|\
  "A"cAc "A7"ecA|"D"def "B7"fga|"E"gbg "E7"efg|"A"aec A2|]
%%center Book30/3004-Bawk-AL.abc

%%sep 1 1 500
%%sep 1 1 500

